app/dist/common/images/champion-iron.svg

<svg height="18" viewBox="0 0 18 18" width="18" xmlns="http://www.w3.org/2000/svg"><path d="m0 0h18v18h-18z" fill="#393a3e"/><path d="m10.8 7.89-2.29-2.89-5.51 7h11v-5.82l-3.2 1.7zm-2.29-1.2 1.39 1.7-4.84 2.61 3.44-4.3zm-1.41 4.31 3.45-1.87 1.51 1.87h-4.97zm5.91-.41-1.59-1.91 1.58-.88v2.78z" fill="#d9dadb"/></svg>

<!-- by TradingView --><svg xmlns="http://www.w3.org/2000/svg" width="18" height="18" viewBox="0 0 18 18"><path fill="#393A3E" d="M0 0h18v18H0z"/><path d="M10.8 7.89 8.51 5 3 12h11V6.18l-3.2 1.7Zm-2.29-1.2L9.9 8.39 5.06 11 8.5 6.7ZM7.1 11l3.45-1.87L12.06 11H7.09Zm5.91-.41-1.59-1.91L13 7.8v2.78Z" fill="#D9DADB"/></svg>
